svg/login.svg

<?xml version="1.0" encoding="UTF-8"?>
<svg xmlns="http://www.w3.org/2000/svg" xmlns:xlink="http://www.w3.org/1999/xlink" width="32" height="32" viewBox="0 0 32 32">
<path fill-rule="nonzero" fill="rgb(0%, 0%, 0%)" fill-opacity="1" d="M 16.011719 1.269531 C 9.878906 1.269531 4.617188 5.035156 2.410156 10.382812 C 2.226562 10.808594 2.285156 11.296875 2.5625 11.667969 C 2.84375 12.035156 3.300781 12.222656 3.757812 12.160156 C 4.21875 12.097656 4.605469 11.792969 4.773438 11.359375 C 6.597656 6.941406 10.925781 3.828125 16.011719 3.828125 C 22.742188 3.828125 28.171875 9.257812 28.171875 15.988281 C 28.171875 22.71875 22.742188 28.148438 16.011719 28.148438 C 10.925781 28.148438 6.597656 25.035156 4.773438 20.621094 C 4.605469 20.191406 4.214844 19.882812 3.757812 19.816406 C 3.300781 19.753906 2.839844 19.941406 2.5625 20.3125 C 2.28125 20.683594 2.222656 21.171875 2.410156 21.597656 C 4.617188 26.945312 9.878906 30.707031 16.011719 30.707031 C 24.125 30.707031 30.730469 24.105469 30.730469 15.988281 C 30.730469 7.875 24.125 1.269531 16.011719 1.269531 M 17.257812 10.214844 C 16.734375 10.214844 16.265625 10.53125 16.070312 11.015625 C 15.871094 11.496094 15.988281 12.054688 16.363281 12.414062 L 18.660156 14.707031 L 2.546875 14.707031 C 1.839844 14.707031 1.269531 15.28125 1.269531 15.988281 C 1.269531 16.695312 1.839844 17.269531 2.546875 17.269531 L 18.660156 17.269531 L 16.363281 19.5625 C 16.03125 19.882812 15.898438 20.363281 16.019531 20.808594 C 16.136719 21.253906 16.484375 21.605469 16.929688 21.722656 C 17.375 21.839844 17.851562 21.707031 18.171875 21.375 L 22.652344 16.894531 C 23.152344 16.394531 23.152344 15.582031 22.652344 15.082031 L 18.171875 10.605469 C 17.933594 10.355469 17.601562 10.214844 17.257812 10.214844 "/>
</svg>

<svg role="img" viewBox="0 0 32 32" height="32" width="32" xmlns="http://www.w3.org/2000/svg"><path d="M16.012 1.27c-6.133 0-11.395 3.765-13.602 9.113a1.29 1.29 0 0 0 .152 1.285c.282.367.739.555 1.196.492.46-.062.847-.367 1.015-.8 1.825-4.419 6.153-7.532 11.239-7.532 6.73 0 12.16 5.43 12.16 12.16s-5.43 12.16-12.16 12.16c-5.086 0-9.414-3.113-11.239-7.527a1.298 1.298 0 0 0-1.015-.805 1.281 1.281 0 0 0-1.348 1.782c2.207 5.347 7.469 9.109 13.602 9.109 8.113 0 14.718-6.602 14.718-14.719 0-8.113-6.605-14.718-14.718-14.718m1.246 8.945a1.28 1.28 0 0 0-1.188.8 1.274 1.274 0 0 0 .293 1.4l2.297 2.292H2.547c-.707 0-1.277.574-1.277 1.281s.57 1.282 1.277 1.282H18.66l-2.297 2.293c-.332.32-.465.8-.343 1.246a1.277 1.277 0 0 0 2.152.566l4.48-4.48c.5-.5.5-1.313 0-1.813l-4.48-4.477c-.238-.25-.57-.39-.914-.39"/></svg>
